X:1
T:Title
%%score { ( 1 4 ) | ( 2 3 ) }
L:1/8
Q:1/4=100
M:4/4
K:C
V:1 treble nm="Grand Piano"
V:4 treble 
V:2 bass 
V:3 bass 
V:1
 [CE]2 [DF]2 [FA]2 [EG]2 | [Ec]2 [EB]2 BA G2 | F2 [B,G]2 [CE]2 [Ec]2 | B4 z4 | G2 A2 _B2 =B2 | %5
w: G.~F.~Root * * *|||||
 c2 ^c2 d2 G2 | [Ee]2 [FB]2 .[Gd]2 [CFA][DF] | [CE]2[K:bass] .[G,B,D]2 [E,C]4 | %8
w: |||
 [B,DF][B,DF][B,EG][B,DF] [CE]2 [CEG]2 | [CFA][CFA] [CFB]>[CFA] [CEG]4 | %10
w: ||
 [B,DF][B,DF][B,EG][B,DF] [CE]2 [CEG]2 | [B,FA][G,EG][G,DF][K:bass][F,B,D] [E,C]4 |] %12
w: ||
V:2
 [C,G,]2 [C,G,]2 [C,C]2 [C,C]2 | z4 [F,F]2 z2 | [D,G,B,]2 [G,,G,]2 [B,,G,]2 [A,,A,]2 | %3
 [D,D]3 [D,^F,C] [G,B,]4 | [G,B,]2[K:treble] [G,C]2 [G,^C]2 [G,D]2 | %5
 [G,E]2 [G,E]2 [G,B,F]2 [G,B,F]2 | [C,G,]2 [D,G,]2 z[K:treble] c[K:bass] z A, | G,2 z F, C,4 | %8
 G,,G,,G,,G,, C,2 C,2 | F,F, F,>F, C,4 | G,,G,,G,,G,, C,2 C,2 | G,,F,,G,,G,, C,4 |] %12
V:3
 x8 | [C,G,]2 [C,G,]2 z A, [E,C]2 | x8 | x8 | x2[K:treble] x6 | x8 | %6
 z4 [E,C]2[K:treble][K:bass] F,2 | z2 G,,2 z4 | x8 | x8 | x8 | x8 |] %12
V:4
 x8 | x8 | x8 | z2 E,A G4 | x8 | x8 | x8 | x2[K:bass] x6 | x8 | x8 | x8 | x3[K:bass] x5 |] %12

